X: 2272
T: TWO PENNY JIG
R: Irish Jig.
%R: jig
B: James Kerr "Merry Melodies" v.2 p.30 #272
Z: 2016 John Chambers <jc:trillian.mit.edu>
M: 6/8
L: 1/8
K: Gdor
|:\
vGFD uB2c | dBG GFD | uG2vA uB2uc | dBG uG2uB |\
GFD B2c | dBG AGA | FAc fed |[1 cAF FGA :|[2 cAF F2c ||
|:\
dfd cdc | BdB AGF | vG2vA uB2uc | dBG uG2uc |\
dfd cfc | BdB AGA | FAc fed | cAF FAc :|
